X: 129018
M: 6/8
L: 1/8
K: A
uE |\
vA2vA AGA | vB2vc ud2ue | vf2vf ecA | AGA BGE |\
vB2vB uB2uc | ded c2e | a2e a2e | c>BA e3 |\


